svgs/duotone/face-sleeping.svg

<svg xmlns="http://www.w3.org/2000/svg" viewBox="0 0 512 512"><!--! Font Awesome Pro 6.4.0 by @fontawesome - https://fontawesome.com License - https://fontawesome.com/license (Commercial License) Copyright 2023 Fonticons, Inc. --><defs><style>.fa-secondary{opacity:.4}</style></defs><path class="fa-primary" d="M416 16c0 8.8 7.2 16 16 16h25.4L420.7 68.7c-4.6 4.6-5.9 11.5-3.5 17.4s8.3 9.9 14.8 9.9h64c8.8 0 16-7.2 16-16s-7.2-16-16-16H470.6l36.7-36.7c4.6-4.6 5.9-11.5 3.5-17.4S502.5 0 496 0H432c-8.8 0-16 7.2-16 16zM256 80c0 8.8 7.2 16 16 16h25.4l-36.7 36.7c-4.6 4.6-5.9 11.5-3.5 17.4s8.3 9.9 14.8 9.9h64c8.8 0 16-7.2 16-16s-7.2-16-16-16H310.6l36.7-36.7c4.6-4.6 5.9-11.5 3.5-17.4s-8.3-9.9-14.8-9.9H272c-8.8 0-16 7.2-16 16zM387.2 238.4c-17.6 23.5-52.8 23.5-70.4 0c-5.3-7.1-15.3-8.5-22.4-3.2s-8.5 15.3-3.2 22.4c30.4 40.5 91.2 40.5 121.6 0c5.3-7.1 3.9-17.1-3.2-22.4s-17.1-3.9-22.4 3.2zm-262.4 0c-5.3-7.1-15.3-8.5-22.4-3.2s-8.5 15.3-3.2 22.4c30.4 40.5 91.2 40.5 121.6 0c5.3-7.1 3.9-17.1-3.2-22.4s-17.1-3.9-22.4 3.2c-17.6 23.5-52.8 23.5-70.4 0z"/><path class="fa-secondary" d="M477.8 128c21.8 37.7 34.2 81.4 34.2 128c0 141.4-114.6 256-256 256S0 397.4 0 256S114.6 0 256 0c48.7 0 94.2 13.6 132.9 37.2c1.9 4 4.4 7.6 7.3 10.8c-12.2 13.7-15.7 33.3-8.6 50.4c7.4 17.9 24.9 29.6 44.3 29.6h45.8zM256 80c0 8.8 7.2 16 16 16h25.4l-36.7 36.7c-4.6 4.6-5.9 11.5-3.5 17.4s8.3 9.9 14.8 9.9h64c8.8 0 16-7.2 16-16s-7.2-16-16-16H310.6l36.7-36.7c4.6-4.6 5.9-11.5 3.5-17.4s-8.3-9.9-14.8-9.9H272c-8.8 0-16 7.2-16 16zm0 344a40 40 0 1 0 0-80 40 40 0 1 0 0 80zm60.8-185.6c-5.3-7.1-15.3-8.5-22.4-3.2s-8.5 15.3-3.2 22.4c30.4 40.5 91.2 40.5 121.6 0c5.3-7.1 3.9-17.1-3.2-22.4s-17.1-3.9-22.4 3.2c-17.6 23.5-52.8 23.5-70.4 0zm-121.6 0c-17.6 23.5-52.8 23.5-70.4 0c-5.3-7.1-15.3-8.5-22.4-3.2s-8.5 15.3-3.2 22.4c30.4 40.5 91.2 40.5 121.6 0c5.3-7.1 3.9-17.1-3.2-22.4s-17.1-3.9-22.4 3.2z"/></svg>

<svg xmlns="http://www.w3.org/2000/svg" viewBox="0 0 512 512"><!--! Font Awesome Pro 6.3.0 by @fontawesome - https://fontawesome.com License - https://fontawesome.com/license (Commercial License) Copyright 2023 Fonticons, Inc. --><defs><style>.fa-secondary{opacity:.4}</style></defs><path class="fa-primary" d="M432 0H496C502.5 0 508.3 3.898 510.8 9.877C513.3 15.86 511.9 22.74 507.3 27.31L470.6 64H496C504.8 64 512 71.16 512 80C512 88.84 504.8 96 496 96H432C425.5 96 419.7 92.1 417.2 86.12C414.7 80.14 416.1 73.26 420.7 68.69L457.4 32H432C423.2 32 416 24.84 416 16C416 7.164 423.2 .0003 432 .0003V0zM272 64H336C342.5 64 348.3 67.9 350.8 73.88C353.3 79.86 351.9 86.74 347.3 91.31L310.6 128H336C344.8 128 352 135.2 352 144C352 152.8 344.8 160 336 160H272C265.5 160 259.7 156.1 257.2 150.1C254.7 144.1 256.1 137.3 260.7 132.7L297.4 96H272C263.2 96 256 88.84 256 80C256 71.16 263.2 64 272 64V64zM409.6 235.2C416.7 240.5 418.1 250.5 412.8 257.6C382.4 298.1 321.6 298.1 291.2 257.6C285.9 250.5 287.3 240.5 294.4 235.2C301.5 229.9 311.5 231.3 316.8 238.4C334.4 261.9 369.6 261.9 387.2 238.4C392.5 231.3 402.5 229.9 409.6 235.2V235.2zM124.8 238.4C142.4 261.9 177.6 261.9 195.2 238.4C200.5 231.3 210.5 229.9 217.6 235.2C224.7 240.5 226.1 250.5 220.8 257.6C190.4 298.1 129.6 298.1 99.2 257.6C93.9 250.5 95.33 240.5 102.4 235.2C109.5 229.9 119.5 231.3 124.8 238.4z"/><path class="fa-secondary" d="M477.8 128C499.5 165.7 512 209.4 512 256C512 397.4 397.4 512 256 512C114.6 512 0 397.4 0 256C0 114.6 114.6 0 256 0C304.7 0 350.2 13.58 388.9 37.16C390.8 41.11 393.3 44.75 396.2 48C383.1 61.68 380.6 81.26 387.7 98.37C395.1 116.3 412.6 127.1 432 127.1L477.8 128zM256 80C256 88.84 263.2 96 272 96H297.4L260.7 132.7C256.1 137.3 254.7 144.1 257.2 150.1C259.7 156.1 265.5 160 272 160H336C344.8 160 352 152.8 352 144C352 135.2 344.8 128 336 128H310.6L347.3 91.31C351.9 86.74 353.3 79.86 350.8 73.88C348.3 67.9 342.5 64 336 64H272C263.2 64 256 71.16 256 80V80zM256 424C278.1 424 296 406.1 296 384C296 361.9 278.1 344 256 344C233.9 344 216 361.9 216 384C216 406.1 233.9 424 256 424zM294.4 235.2C287.3 240.5 285.9 250.5 291.2 257.6C321.6 298.1 382.4 298.1 412.8 257.6C418.1 250.5 416.7 240.5 409.6 235.2C402.5 229.9 392.5 231.3 387.2 238.4C369.6 261.9 334.4 261.9 316.8 238.4C311.5 231.3 301.5 229.9 294.4 235.2V235.2zM195.2 238.4C177.6 261.9 142.4 261.9 124.8 238.4C119.5 231.3 109.5 229.9 102.4 235.2C95.33 240.5 93.9 250.5 99.2 257.6C129.6 298.1 190.4 298.1 220.8 257.6C226.1 250.5 224.7 240.5 217.6 235.2C210.5 229.9 200.5 231.3 195.2 238.4z"/></svg>
